X:1
T:Pachelbel's Canon (Simple)
C:Johann Pachelbel
M:4/4
L:1/4
Q:80
K:C
%%staves {1 2}
V:1 clef=treble
V:2 clef=bass
%% Demonstrates triads and chord progressions I-V-vi-iii-IV-I-IV-V
[V:1] E2 D2 | C2 B,2 | A,2 G,2 | A,2 B,2 |
[V:2] [CEG]4 | [G,BD]4 | [A,CE]4 | [EGB]4 |
[V:1] C2 B,2 | A,2 G,2 | A,2 B,2 | C4 |
[V:2] [FAc]4 | [CEG]4 | [FAc]4 | [G,BD]4 |]
